X:641
T: Nian hongjun
N: C2165
O: China, Hubei Shishao
S: I, 423]
R: Xiaodiao, Heshadiao]
M: 2/4
L: 1/16
K: A
FABcA4 | c3eA4 | F2A4E2 | FACEF4
c2cBc2ec | B2cBA4 | F2A4BA | F8
c2FAc4 | F3AC2E2 | FAC4E2 | F2c2A2A2
c2cBc2e2 | cBcBA4 | F2A4BA | F8

